X: 31049
T: Paddy Cronin's
R: slide
M: 12/8
K: Edorian
~B3 BcA G2F EBc|dcd ~ e2c d3 d2A|
~B3 BcA G2F Ecd|1 ~e3 efd ~e3 e2d:|2 ~e3 efd ~e3 e2f||
~g3 gaf g2f e2c|dcd e2c d3 d2A|
~B3 BcA G2F Ecd|1 ~e3 efd ~e3 e2f:|2 ~e3 efd e3 e2d||

